www/assets/icons/crop_3_2.svg

<svg xmlns="http://www.w3.org/2000/svg" width="24" height="24" viewBox="0 0 24 24" fill='currentColor'><path d="M19 6H5c-1.1 0-2 .9-2 2v8c0 1.1.9 2 2 2h14c1.1 0 2-.9 2-2V8c0-1.1-.9-2-2-2m0 10H5V8h14z"/></svg>

<svg width="24" height="24" viewBox="0 0 24 24" xmlns="http://www.w3.org/2000/svg" fill='currentColor'><path d="M19 6H5C3.9 6 3 6.9 3 8V16C3 17.1 3.9 18 5 18H19C20.1 18 21 17.1 21 16V8C21 6.9 20.1 6 19 6ZM19 16H5V8H19V16Z"/></svg>
